X:162 
T:Piper's Favorite (reel), The
S:Donnelly < Jones
F:file ID: cre.4/162pipers_f
B:CRE4.206 (Rogha an Phiobaire)
L:1/8
Q:180
M:4/4
R:reel
K:G % source key D
E|D3B BAGE|DGEG A3B|D3B AGEG|BcAB GABG|
D3B BAGE|DGEG A3B|D3B AGEG|(3Bcd AB G3 ||
A|BAGB AGEG|BAGB d3c|BAGB AGEG|BcAB GFGA|
BAGB AGEG|BAGB d3B|cdcA BcBA|GEDE G4|]

%%%

